home-import-outline.svg

<svg  viewBox="0 0 24 24" fill="currentColor"><path  d="M15 13L11 17V14H2V12H11V9L15 13M5 20V16H7V18H17V10.19L12 5.69L7.21 10H4.22L12 3L22 12H19V20H5Z"/></svg>

<svg fill="currentColor" viewBox="0 0 24 24"><path d="m15 13-4 4v-3H2v-2h9V9zM5 20v-4h2v2h10v-7.81l-5-4.5L7.21 10H4.22L12 3l10 9h-3v8z"/></svg>
